X: 2033
T: Yılları Durduracak
C: Necdet Tokatlıoğlu
O: Turkey
F: http://compmusic.upf.edu/node/140
N: nihavent--sarki--duyek--yillari_durduracak--necdet_tokatlioglu
N: makam= nihavent
N: form= sarki
N: usul= duyek = 8/4
M: 8/4
L: 1/16
K: C _B _e  
Q: 1/4=204
%%MIDI tuningsystem comma53
z2 G2 A2 B2 c2 B2 A2 B2  | G8 D4 G4  | \
w:   |   | 
z2 G2 A2 B2 c2 B2 A2 G2  | d8 G4 d4  | 
w:   |   | 
z2 d2 e2 f2 g2 f2 e2 d2  | a8 d4 a4  | \
w:   |   | 
z2 b2 a2 g2 f2 e2 d2 c2  | d8 G4 d4  | 
w:   |   | 
z2 e2 d2 c2 B4 A2 B2  | c4 z4 A2 B2 c4  | \
w:   |   | 
z2 d2 c2 B2 A4 B2 A2  | G8 D4 G4  | 
w:   |   | 
z2 e2 d2 c2 B4 A2 B2  | c4 z4 A2 B2 c4  | \
w:   |   | 
z2 d2 c2 B2 A4 B2 A2  | G8 D4 G4  | 
w:   |   | 
z2 G3A B2 c4 B2 A2  | G8 D4 G4  | z2 d2 e2 f2 g3f e2 ed  | \
w:  Yıl la rı  dur du ra  |  cak   SAZ  |  Gü ne şi  doğ *  du ra  | 
d8 G4 d4  | 
w:  cak   SAZ  | 
z2 a2 b2 c'2 a3g g2 gf  | f8 g4 a4  | \
w:  Dün ya mı  dol *  du ra  |  cak    | 
z2 b2 a2 gf g4 e2 ed  | 
w:  Bir  sev gi  *  is ti yo  | 
d16  | z2 b2 a2 g2 f2 e2 d4  | z2 e2 d2 c2 B2 A2 G4  | \
w:  rum    |  SAZ  |   | 
z2 G3A B2 c4 B2 A2  | 
w:  Yıl la rı  dur du ra  | 
G8 D4 G4  | z2 d2 e2 f2 g3f e2 ed  | \
w:  cak   SAZ  |  Gü ne şi  doğ *  du ra  | 
d8 G4 d4  | z2 a2 b2 c'2 a3g g2 gf  | 
w:  cak   SAZ  |  Dün ya mı  dol *  du ra  | 
f8 g4 a4  | z2 b2 a2 gf g4 e2 ed  | d16  | \
w:  cak    |  Bir  sev gi  *  is ti yo  |  rum    | 
z2 b2 a2 g2 f2 e2 d4  | z2 e2 d2 c2 B2 c2 d4  | 
w:  SAZ  |   | 
z2 g2 f2 e2 d4 c2 d2  | e6 z2 cd cd e4  | \
w:  De li  gi bi  se ve  |  cek   SAZ  | 
z2 d2 e2 g2 f3e e2 ed  | 
w:  Ö mür  bo yu  *  sü re  | 
d8 G2 B2 d4  | z2 e3d c2 B4 A2 B2  | \
w:  cek   SAZ  |  Göz le rim de  tü te  | 
c8 AB AB c4  | z2 d2 c2 B2 c4 B2 BA  | 
w:  cek   SAZ  |  Bir  sev gi  is ti yo  | 
G8 D4 G4  | z2 b2 a2 g2 f2 e2 d4  | z2 e2 d2 c2 B2 c2 d4  | \
w:  rum   SAZ  |   |   | 
z2 g2 f2 e2 d4 c2 d2  | 
w:  De li  gi bi  se ve  | 
e6 z2 cd cd e4  | z2 d2 e2 g2 f3e e2 ed  | \
w:  cek   SAZ  |  Ö mür  bo yu  *  sü re  | 
d8 G2 B2 d4  | z2 e3d c2 B4 A2 B2  | 
w:  cek   SAZ  |  Göz le rim de  tü te  | 
c8 AB AB c4  | z2 d2 c2 B2 c4 B2 BA  | \
w:  cek   SAZ  |  Bir  sev gi  is ti yo  | 
G8 D4 G4  | z2 b2 a2 g2 f2 e2 d4  | 
w:  rum   SAZ  |   | 
z2 e2 d2 c2 g4 g4  | z2 g3g g2 g4 ^f2 g2  | \
w:   |  Ha li mi  an la ya  | 
a8 d2 ^f2 a4  | z2 c'3c' b2 d'4 b2 ba  | 
w:  cak   SAZ  |  Der di me  kat la na  | 
a16  | z2 b2 a2 g2 a4 g2 g2  | ^f8 g4 a4  | \
w:  cak    |  Be nim le  ağ la ya  |  cak    | 
z2 b2 a2 gf g4 e2 ed  | d16  | 
w:  Sev gi li  *  is ti yo  |  rum    | 
z2 b2 a2 g2 f2 e2 d4  | z2 e2 d2 c2 g4 g4  | \
w:  SAZ  |   | 
z2 g3g g2 g4 ^f2 g2  | a8 d2 ^f2 a4  | 
w:  Ha li mi  an la ya  |  cak   SAZ  | 
z2 c'3c' b2 d'4 b2 ba  | a16  | z2 b2 a2 g2 a4 g2 g2  | \
w:  Der di me  kat la na  |  cak    |  Be nim le  ağ la ya  | 
^f8 g4 a4  | z2 b2 a2 gf g4 e2 ed  | 
w:  cak    |  Sev gi li  *  is ti yo  | 
d16  | z2 b2 a2 g2 f2 e2 d4  | z2 e2 d2 c2 B2 c2 d4  | \
w:  rum    |  SAZ  |   | 
z2 g2 f2 e2 d4 c2 d2  | 
w:  De li  gi bi  se ve  | 
e6 z2 cd cd e4  | z2 d2 e2 g2 f3e e2 ed  | \
w:  cek   SAZ  |  Ö mür  bo yu  *  sü re  | 
d8 G2 B2 d4  | z2 e3d c2 B4 A2 B2  | 
w:  cek   SAZ  |  Göz le rim de  tü te  | 
c8 AB AB c4  | z2 d2 c2 B2 c4 B2 BA  | \
w:  cek   SAZ  |  Bir  sev gi  is ti yo  | 
G8 D4 G4  | |


